icons/calculator.svg

<svg width="24" height="24" viewBox="0 0 24 24" fill="none" xmlns="http://www.w3.org/2000/svg">
<path fill-rule="evenodd" clip-rule="evenodd" d="M8 3.75C6.71421 3.75 5.75 4.71421 5.75 6V18C5.75 19.2858 6.71421 20.25 8 20.25H16C17.2858 20.25 18.25 19.2858 18.25 18V6C18.25 4.71421 17.2858 3.75 16 3.75H8ZM4.25 6C4.25 3.88579 5.88579 2.25 8 2.25H16C18.1142 2.25 19.75 3.88579 19.75 6V18C19.75 20.1142 18.1142 21.75 16 21.75H8C5.88579 21.75 4.25 20.1142 4.25 18V6Z" fill="black"/>
<path fill-rule="evenodd" clip-rule="evenodd" d="M8.80533 6.80533C8.78991 6.82075 8.75 6.87044 8.75 7V10C8.75 10.1296 8.78991 10.1793 8.80533 10.1947C8.82075 10.2101 8.87044 10.25 9 10.25H15C15.0061 10.25 15.0749 10.2394 15.1572 10.1572C15.2394 10.0749 15.25 10.0061 15.25 10V7C15.25 6.87044 15.2101 6.82075 15.1947 6.80533C15.1793 6.78991 15.1296 6.75 15 6.75H9C8.87044 6.75 8.82075 6.78991 8.80533 6.80533ZM7.74467 5.74467C8.07925 5.41009 8.52956 5.25 9 5.25H15C15.4704 5.25 15.9207 5.41009 16.2553 5.74467C16.5899 6.07925 16.75 6.52956 16.75 7V10C16.75 10.4939 16.5106 10.9251 16.2178 11.2178C15.9251 11.5106 15.4939 11.75 15 11.75H9C8.52956 11.75 8.07925 11.5899 7.74467 11.2553C7.41009 10.9207 7.25 10.4704 7.25 10V7C7.25 6.52956 7.41009 6.07925 7.74467 5.74467Z" fill="black"/>
<path d="M8.99995 14.7C8.79995 14.7 8.59995 14.6 8.49995 14.5C8.39995 14.4 8.19995 14.1 8.19995 14C8.19995 13.8 8.29995 13.6 8.39995 13.5C8.69995 13.2 9.19995 13.2 9.49995 13.5C9.59995 13.6 9.69995 13.8 9.69995 14C9.69995 14.2 9.59995 14.4 9.49995 14.5C9.39995 14.6 9.09995 14.7 8.99995 14.7Z" fill="black"/>
<path d="M12 14.7C11.8 14.7 11.6 14.6 11.5 14.5C11.4 14.4 11.2 14.1 11.2 14C11.2 13.8 11.3 13.6 11.4 13.5C11.6 13.2 12 13.1 12.2 13.3C12.3 13.3 12.4 13.4 12.4 13.5C12.5 13.6 12.6 13.8 12.6 14C12.6 14.2 12.5 14.4 12.4 14.5C12.3 14.6 12.3 14.6 12.2 14.7C12.1 14.7 12 14.7 12 14.7Z" fill="black"/>
<path d="M15 14.7C14.8 14.7 14.6 14.6 14.5 14.5C14.4 14.4 14.2 14.1 14.2 14C14.2 13.9 14.2 13.8 14.3 13.7C14.3 13.6 14.4 13.5 14.5 13.5C14.8 13.2 15.3 13.2 15.6 13.5C15.7 13.6 15.8 13.8 15.8 14C15.8 14.2 15.7 14.4 15.6 14.5C15.5 14.6 15.1 14.7 15 14.7Z" fill="black"/>
<path d="M14.9999 17.6999C14.8999 17.6999 14.7999 17.6999 14.6999 17.5999C14.5999 17.5999 14.4999 17.4999 14.4999 17.3999C14.3999 17.2999 14.2999 17.0999 14.2999 16.8999C14.2999 16.6999 14.3999 16.4999 14.4999 16.3999C14.5999 16.2999 14.5999 16.2999 14.6999 16.1999C14.9999 16.0999 15.2999 16.0999 15.4999 16.3999C15.5999 16.4999 15.6999 16.6999 15.6999 16.8999C15.6999 17.0999 15.5999 17.2999 15.4999 17.3999C15.3999 17.4999 15.0999 17.6999 14.9999 17.6999Z" fill="black"/>
<path d="M8.99995 17.7C8.79995 17.7 8.59995 17.6 8.49995 17.5C8.39995 17.4 8.19995 17.1 8.19995 17C8.19995 16.8 8.29995 16.6 8.39995 16.5C8.69995 16.2 9.19995 16.2 9.49995 16.5C9.59995 16.6 9.69995 16.8 9.69995 17C9.69995 17.2 9.59995 17.4 9.49995 17.5C9.39995 17.6 9.09995 17.7 8.99995 17.7Z" fill="black"/>
<path d="M12 17.7C11.8 17.7 11.6 17.6 11.5 17.5C11.4 17.4 11.2 17.1 11.2 17C11.2 16.9 11.2 16.8 11.3 16.7C11.3 16.6 11.4 16.5 11.5 16.5C11.8 16.2 12.3 16.2 12.6 16.5C12.7 16.6 12.8 16.8 12.8 17C12.8 17.2 12.7 17.4 12.6 17.5C12.5 17.6 12.1 17.7 12 17.7Z" fill="black"/>
</svg>

<svg xmlns="http://www.w3.org/2000/svg" fill="none" viewBox="0 0 24 24">
  <path fill="#000" fill-rule="evenodd" d="M8 3.75c-1.286 0-2.25.964-2.25 2.25v12c0 1.286.964 2.25 2.25 2.25h8c1.286 0 2.25-.964 2.25-2.25V6c0-1.286-.964-2.25-2.25-2.25H8ZM4.25 6c0-2.114 1.636-3.75 3.75-3.75h8c2.114 0 3.75 1.636 3.75 3.75v12c0 2.114-1.636 3.75-3.75 3.75H8c-2.114 0-3.75-1.636-3.75-3.75V6Z" clip-rule="evenodd"/>
  <path fill="#000" fill-rule="evenodd" d="M8.805 6.805c-.015.016-.055.065-.055.195v3c0 .13.04.18.055.195.016.015.065.055.195.055h6c.006 0 .075-.01.157-.093.082-.082.093-.15.093-.157V7c0-.13-.04-.18-.055-.195-.016-.015-.065-.055-.195-.055H9c-.13 0-.18.04-.195.055Zm-1.06-1.06C8.079 5.41 8.53 5.25 9 5.25h6c.47 0 .92.16 1.255.495.335.334.495.785.495 1.255v3c0 .494-.24.925-.532 1.218-.293.293-.724.532-1.218.532H9c-.47 0-.92-.16-1.255-.495-.335-.334-.495-.785-.495-1.255V7c0-.47.16-.92.495-1.255Z" clip-rule="evenodd"/>
  <path fill="#000" d="M9 14.7c-.2 0-.4-.1-.5-.2-.1-.1-.3-.4-.3-.5 0-.2.1-.4.2-.5.3-.3.8-.3 1.1 0 .1.1.2.3.2.5s-.1.4-.2.5c-.1.1-.4.2-.5.2Zm3 0c-.2 0-.4-.1-.5-.2-.1-.1-.3-.4-.3-.5 0-.2.1-.4.2-.5.2-.3.6-.4.8-.2.1 0 .2.1.2.2.1.1.2.3.2.5s-.1.4-.2.5l-.2.2H12Zm3 0c-.2 0-.4-.1-.5-.2-.1-.1-.3-.4-.3-.5 0-.1 0-.2.1-.3 0-.1.1-.2.2-.2.3-.3.8-.3 1.1 0 .1.1.2.3.2.5s-.1.4-.2.5c-.1.1-.5.2-.6.2Zm0 3c-.1 0-.2 0-.3-.1-.1 0-.2-.1-.2-.2-.1-.1-.2-.3-.2-.5s.1-.4.2-.5l.2-.2c.3-.1.6-.1.8.2.1.1.2.3.2.5s-.1.4-.2.5c-.1.1-.4.3-.5.3Zm-6 0c-.2 0-.4-.1-.5-.2-.1-.1-.3-.4-.3-.5 0-.2.1-.4.2-.5.3-.3.8-.3 1.1 0 .1.1.2.3.2.5s-.1.4-.2.5c-.1.1-.4.2-.5.2Zm3 0c-.2 0-.4-.1-.5-.2-.1-.1-.3-.4-.3-.5 0-.1 0-.2.1-.3 0-.1.1-.2.2-.2.3-.3.8-.3 1.1 0 .1.1.2.3.2.5s-.1.4-.2.5c-.1.1-.5.2-.6.2Z"/>
</svg>
